coreui/free/cil-education.svg

<svg xmlns="http://www.w3.org/2000/svg" viewBox="0 0 512 512">
  <polygon fill="var(--ci-primary-color, currentColor)" points="368 350.643 256 413.643 144 350.643 144 284.081 112 266.303 112 369.357 256 450.357 400 369.357 400 266.303 368 284.081 368 350.643" class="ci-primary"/>
  <path fill="var(--ci-primary-color, currentColor)" d="M256,45.977,32,162.125v27.734L256,314.3,448,207.637V296h32V162.125ZM416,188.808l-32,17.777L256,277.7,128,206.585,96,188.808,73.821,176.486,256,82.023l182.179,94.463Z" class="ci-primary"/>
</svg>

<svg viewBox="0 0 512 512" xmlns="http://www.w3.org/2000/svg"><g><path d="M368 350.64l-112 63 -112-63 0-66.57 -32-17.78 0 103.05 144 81 144-81 0-103.06 -32 17.77 0 66.56Z"/><path d="M256 45.97L32 162.118v27.73l224 124.44 192-106.67v88.363h32V162.106ZM416 188.8l-32 17.77 -128 71.11 -128-71.12 -32-17.78 -22.18-12.33 182.179-94.47 182.17 94.463Z"/></g></svg>
